X: 97
T: SLEEP ON MY KATHLEEN DEAR
B: O'Neill's 97
M: C
L: 1/8
Z: Transcribed by John Chambers <jc@trillian.mit.edu>
N: "Slow"
N: Missing dot in bar 8?
K:G
G2 \
| c3d (cB)(AG) | G2(B/A/B/d/) {a}g{f}e \
| (d<B) (AG) (ED)(EG) | G4 z2D2 |
| c2(cd) (cB)(AG) | G2(B/A/B/d/) e2(ge) \
| (d<B) (AG) (ED)(EG) | G4 z2 :|
|: e \
| (=f>e)(fg) (fe)(dB) | d2(eg) g3=f \
| (fe)(ge) (ed)(ge) | (dB) (c/B/A/G/) ED ze |
| (=f>e)(fg) e2g2 | G2Bd e2{a}g{f}e \
|1 d<B AG (ED)(EG) | G6 z \
:|2 (d<B) AG ({F}Ec/B/) c/B/A/G/ | G6 z ||


